flaticon/science/flask-9.svg

<svg xmlns="http://www.w3.org/2000/svg" width="32" height="32" viewBox="0 0 24 24">
    <path d="M 15.601562 5.480469 L 15.601562 3.148438 C 16.289062 2.96875 16.800781 2.34375 16.800781 1.601562 C 16.800781 0.71875 16.078125 0 15.199219 0 L 8.800781 0 C 7.921875 0 7.199219 0.71875 7.199219 1.601562 C 7.199219 2.34375 7.710938 2.96875 8.398438 3.148438 L 8.398438 5.480469 C 4.800781 6.960938 2.398438 10.480469 2.398438 14.398438 C 2.398438 15.347656 2.539062 16.269531 2.800781 17.136719 C 2.808594 17.160156 2.816406 17.1875 2.824219 17.210938 C 2.832031 17.238281 2.839844 17.269531 2.851562 17.296875 C 2.867188 17.355469 2.886719 17.410156 2.90625 17.46875 C 2.90625 17.46875 2.90625 17.472656 2.90625 17.472656 C 3.242188 18.46875 3.742188 19.386719 4.367188 20.207031 C 5.992188 22.335938 8.484375 23.769531 11.304688 23.972656 C 11.3125 23.976562 11.320312 23.976562 11.332031 23.976562 C 11.398438 23.980469 11.464844 23.984375 11.53125 23.988281 C 11.5625 23.988281 11.59375 23.992188 11.625 23.992188 C 11.671875 23.992188 11.714844 23.996094 11.761719 23.996094 C 11.839844 24 11.921875 24 12 24 C 12.164062 24 12.328125 23.996094 12.492188 23.988281 C 17.546875 23.730469 21.601562 19.515625 21.601562 14.398438 C 21.601562 10.480469 19.199219 6.921875 15.601562 5.480469 Z M 8 1.601562 C 8 1.160156 8.359375 0.800781 8.800781 0.800781 L 15.199219 0.800781 C 15.640625 0.800781 16 1.160156 16 1.601562 C 16 2.039062 15.640625 2.398438 15.199219 2.398438 L 8.800781 2.398438 C 8.359375 2.398438 8 2.039062 8 1.601562 Z M 8.921875 6.121094 C 9.078125 6.078125 9.199219 5.921875 9.199219 5.761719 L 9.199219 3.199219 L 14.800781 3.199219 L 14.800781 5.800781 C 14.800781 5.960938 14.921875 6.121094 15.078125 6.160156 C 17.941406 7.238281 20.035156 9.730469 20.628906 12.683594 C 19.242188 12.085938 17.753906 11.710938 16.078125 13.28125 C 15.078125 14.28125 14.480469 14.160156 12.519531 13.199219 C 10.359375 11.878906 8.078125 11.039062 6 13.71875 C 5.230469 14.734375 4.03125 14.832031 3.207031 14.757812 C 3.203125 14.640625 3.199219 14.519531 3.199219 14.398438 C 3.199219 10.71875 5.519531 7.441406 8.921875 6.121094 Z M 12 23.199219 C 11.929688 23.199219 11.855469 23.199219 11.785156 23.195312 C 11.753906 23.195312 11.722656 23.195312 11.6875 23.195312 C 11.652344 23.191406 11.613281 23.191406 11.574219 23.1875 C 11.53125 23.1875 11.488281 23.183594 11.441406 23.183594 C 11.417969 23.179688 11.394531 23.179688 11.371094 23.175781 C 11.316406 23.171875 11.261719 23.167969 11.210938 23.164062 C 11.195312 23.164062 11.183594 23.160156 11.171875 23.160156 C 11.109375 23.15625 11.046875 23.148438 10.984375 23.140625 C 10.980469 23.140625 10.980469 23.140625 10.980469 23.140625 C 8.511719 22.847656 6.320312 21.515625 4.902344 19.582031 C 4.890625 19.570312 4.882812 19.558594 4.875 19.546875 C 4.847656 19.511719 4.820312 19.472656 4.796875 19.4375 C 4.777344 19.410156 4.757812 19.382812 4.738281 19.355469 C 4.722656 19.332031 4.707031 19.308594 4.691406 19.285156 C 4.660156 19.242188 4.632812 19.199219 4.605469 19.15625 C 4.597656 19.144531 4.59375 19.136719 4.585938 19.125 C 4.171875 18.476562 3.835938 17.769531 3.601562 17.023438 C 3.597656 17.015625 3.597656 17.007812 3.59375 17 C 3.578125 16.949219 3.5625 16.898438 3.546875 16.847656 C 3.542969 16.824219 3.535156 16.800781 3.527344 16.777344 C 3.519531 16.746094 3.511719 16.714844 3.503906 16.683594 C 3.40625 16.320312 3.328125 15.945312 3.28125 15.558594 C 4.71875 15.679688 5.878906 15.199219 6.640625 14.199219 C 8.238281 12.160156 9.921875 12.558594 12.160156 13.921875 C 14.078125 14.839844 15.238281 15.320312 16.679688 13.878906 C 18.078125 12.601562 19.160156 12.878906 20.761719 13.601562 C 20.765625 13.640625 20.769531 13.679688 20.773438 13.714844 C 20.789062 13.941406 20.800781 14.171875 20.800781 14.398438 C 20.800781 19.238281 16.839844 23.199219 12 23.199219 Z M 12 23.199219"/>
    <path d="M7.601562 8.398438L9.199219 8.398438C9.441406 8.398438 9.601562 8.238281 9.601562 8 9.601562 7.761719 9.441406 7.601562 9.199219 7.601562L7.601562 7.601562C7.359375 7.601562 7.199219 7.761719 7.199219 8 7.199219 8.238281 7.359375 8.398438 7.601562 8.398438zM6.398438 10L7.601562 10C7.839844 10 8 9.839844 8 9.601562 8 9.359375 7.839844 9.199219 7.601562 9.199219L6.398438 9.199219C6.160156 9.199219 6 9.359375 6 9.601562 6 9.839844 6.160156 10 6.398438 10zM5.199219 11.601562L7.199219 11.601562C7.441406 11.601562 7.601562 11.441406 7.601562 11.199219 7.601562 10.960938 7.441406 10.800781 7.199219 10.800781L5.199219 10.800781C4.960938 10.800781 4.800781 10.960938 4.800781 11.199219 4.800781 11.441406 4.960938 11.601562 5.199219 11.601562zM5.199219 11.601562"/>
</svg>

<svg xmlns="http://www.w3.org/2000/svg" width="32" height="32" viewBox="0 0 24 24">
    <path d="M15.602 5.48V3.148c.687-.18 1.199-.804 1.199-1.546C16.8.719 16.078 0 15.199 0H8.801c-.88 0-1.602.719-1.602 1.602 0 .742.512 1.367 1.2 1.546V5.48c-3.598 1.48-6 5-6 8.918 0 .95.14 1.872.402 2.739l.023.074c.008.027.016.059.028.086.015.058.035.113.054.172v.004a9.547 9.547 0 0 0 1.461 2.734 9.602 9.602 0 0 0 6.938 3.766c.008.004.015.004.027.004l.2.011c.03 0 .062.004.093.004.047 0 .09.004.137.004a10.346 10.346 0 0 0 .73-.008c5.055-.258 9.11-4.472 9.11-9.59 0-3.918-2.403-7.476-6-8.918zM8 1.602C8 1.16 8.36.8 8.8.8h6.4c.44 0 .8.36.8.8 0 .438-.36.797-.8.797H8.8c-.44 0-.8-.359-.8-.796zm.922 4.52a.388.388 0 0 0 .277-.36V3.199h5.602v2.602c0 .16.12.32.277.36a8.86 8.86 0 0 1 5.55 6.523c-1.386-.598-2.874-.973-4.55.597-1 1-1.598.88-3.558-.082-2.16-1.32-4.442-2.16-6.52.52-.77 1.015-1.969 1.113-2.793 1.039a10.795 10.795 0 0 1-.008-.36c0-3.68 2.32-6.957 5.723-8.277zM12 23.198c-.07 0-.145 0-.215-.004h-.098c-.035-.004-.074-.004-.113-.008-.043 0-.086-.003-.133-.003-.023-.004-.046-.004-.07-.008l-.16-.012c-.016 0-.027-.004-.04-.004a3.05 3.05 0 0 1-.187-.02h-.004a8.859 8.859 0 0 1-6.183-3.703l-.059-.082-.047-.07a2.461 2.461 0 0 1-.086-.129c-.007-.011-.011-.02-.02-.031a8.832 8.832 0 0 1-.983-2.102c-.004-.007-.004-.015-.008-.023l-.047-.152c-.004-.024-.012-.047-.02-.07l-.023-.094a8.074 8.074 0 0 1-.223-1.125c1.438.12 2.598-.36 3.36-1.36 1.597-2.039 3.28-1.64 5.52-.277 1.917.918 3.077 1.398 4.519-.043 1.398-1.277 2.48-1 4.082-.277l.011.113c.016.226.028.457.028.683 0 4.84-3.961 8.801-8.801 8.801zm0 0"/>
    <path d="M7.602 8.398h1.597c.242 0 .403-.16.403-.398 0-.238-.16-.398-.403-.398H7.602c-.243 0-.403.16-.403.398 0 .238.16.398.403.398zm0 0M6.398 10h1.204C7.84 10 8 9.84 8 9.602c0-.243-.16-.403-.398-.403H6.398C6.16 9.2 6 9.36 6 9.602c0 .238.16.398.398.398zm0 0M5.2 11.602h2c.241 0 .402-.16.402-.403 0-.238-.16-.398-.403-.398h-2c-.238 0-.398.16-.398.398 0 .242.16.403.398.403zm0 0"/>
</svg>
